X: 6
T: Lust und Leben (Schottisch)  F (5letras transposed)
%%MIDI program 21
R:shottishe
M:2/4
L:1/16
K:F transpose=3 %%MIDI gchordon
"F"cccc c2A2 | c2a2 g2f2 | "C7"f2e2 e2G2 | B6dc | BBBB B2G2 | B2f2 e2d2 | 
"F"d2c2 c2F2 | A6B2 | cccc c2A2 | c2a2 g2f2 | "C"f2e2 e2G2 | e6fe | "G7"d2a2 gfed | 
"C"c2ce G2c2 | "G7"d2df G2d2 | "C"c4c4 || "F"a3g f2e2 | g2f2 c2f2 | "Bb"dff2 e2d2 | "F"c6A2 | 
cccc c2BA | "C7"G2e2e4 | BBBB B2AG | "F"F2d2 d3c | a3g f2e2 | g2f2 c2f2 | 
"Bb"dff2 e2d2 | "F"c6a2 | "Gm"a2g2 ^f2g2 | "F"g2fe f2c2 | "C7"f2ed e2c'2 | "F"f6z2 |] 
% st00841

